outputs/icons/image/grid_off_round.svg

<svg xmlns="http://www.w3.org/2000/svg" width="1200" height="1200" fill="none"><g clip-path="url(#a)"><path fill="#000" d="M349.924 200C267.082 200 200 267.157 200 350v500c0 82.845 67.157 150 150 150h500c82.845 0 150-67.155 150-150V350c0-82.843-67.005-150-149.845-150zM850 900H350c-27.5 0-50-22.5-50-50V350c0-27.5 22.5-50 50-50h500c27.5 0 50 22.5 50 50v500c0 27.5-22.5 50-50 50"/></g><defs><clipPath id="a"><path fill="#fff" d="M0 0h1200v1200H0z"/></clipPath></defs></svg>

<svg width="1200" height="1200" viewBox="0 0 1200 1200" fill="none" xmlns="http://www.w3.org/2000/svg"><g clip-path="url(#clip0_238_2745)"><path d="M349.924 200C267.082 200 200 267.157 200 350V850C200 932.845 267.157 1000 350 1000H850C932.845 1000 1000 932.845 1000 850V350C1000 267.157 932.995 200 850.155 200C716.31 200 516.27 200 349.924 200ZM850 900H350C322.5 900 300 877.5 300 850V350C300 322.5 322.5 300 350 300H850C877.5 300 900 322.5 900 350V850C900 877.5 877.5 900 850 900Z" fill="black"/></g><defs><clipPath id="clip0_238_2745"><path width="24" fill="white" d="M0 0H1200V1200H0V0z"/></clipPath></defs></svg>
